X: 25051
T: Maids Of Ardagh, The
R: polka
M: 2/4
K: Amixolydian
|:F>A BA|dA f2|fe/f/ gc|ed c/B/A|
F>A BA|dA f2|fe/f/ gc|ed d2:|
|:ef/e/ ce|fe a2|ef/e/ ce|fe c/B/A|
ef/e/ ce|fe a2|ef/e/ dB|BA A2:|

